Sources/FrostedUI/Resources/Icons.xcassets/lockOpen20.imageset/lock-open-20.svg

<svg width="20" height="20" viewBox="0 0 20 20" fill="none" xmlns="http://www.w3.org/2000/svg" data-fui-icon="true">
  <path
    d="M10.25 0C13.1959 0 15.6232 2.2147 15.96 5.07031C16.0085 5.48168 15.7141 5.85482 15.3027 5.90332C14.8915 5.95155 14.5192 5.65731 14.4707 5.24609C14.222 3.13671 12.4265 1.5 10.25 1.5H9.75C7.40279 1.5 5.5 3.40279 5.5 5.75V8H15.0498C16.9552 8 18.5 9.54481 18.5 11.4502V16.5498C18.5 18.4552 16.9552 20 15.0498 20H4.9502C3.04481 20 1.5 18.4552 1.5 16.5498V11.4502C1.5 9.8744 2.55668 8.5455 4 8.13281V5.75C4 2.57436 6.57436 0 9.75 0H10.25ZM4.9502 9.5C3.87324 9.5 3 10.3732 3 11.4502V16.5498C3 17.6268 3.87324 18.5 4.9502 18.5H15.0498C16.1268 18.5 17 17.6268 17 16.5498V11.4502C17 10.3732 16.1268 9.5 15.0498 9.5H4.9502Z"
    fill="currentColor"
  />
</svg>

<svg xmlns="http://www.w3.org/2000/svg" width="20" height="20" fill="none" data-fui-icon="true" viewBox="0 0 20 20"><path fill="currentColor" d="M10.25 0a5.75 5.75 0 0 1 5.71 5.07.75.75 0 0 1-1.49.176A4.25 4.25 0 0 0 10.25 1.5h-.5A4.25 4.25 0 0 0 5.5 5.75V8h9.55a3.45 3.45 0 0 1 3.45 3.45v5.1A3.45 3.45 0 0 1 15.05 20H4.95a3.45 3.45 0 0 1-3.45-3.45v-5.1A3.45 3.45 0 0 1 4 8.133V5.75A5.75 5.75 0 0 1 9.75 0zm-5.3 9.5A1.95 1.95 0 0 0 3 11.45v5.1a1.95 1.95 0 0 0 1.95 1.95h10.1A1.95 1.95 0 0 0 17 16.55v-5.1a1.95 1.95 0 0 0-1.95-1.95z"/></svg>
